!!!!SEGMENT: pl-sa--400-a-viii-40--001-001_pugnani-gaetano--trio-in-a-allegro-non-tanto.krn
!!!cenid: 17xx:2021
!!!COM: Pugnani, Gaetano
!!!COM-rismid: pe30002608
!!!CDT: 1731/11/27-1798/07/15
!!!CNT: Italian
!!!OPR: Trio in A
!!!OTL: Allegro non tanto
!!!OMV: 001
!!!PDT:
!!!AGN: Secular
!!!SMS-siglum: PL-SA
!!!SMS-shelfmark: 400/A VIII 40
!!!SMS-shelfwork: 001-001 M
!!!SMS-variant:
!!!SMS-altvar:
!!!NIFC-rismid: 1001104646
!!!URL-scan: http://bc.bdsandomierz.pl/dlibra/publication/1703/edition/1671/content
!!!ONB-nifc: UWAGA: pierwsze Trio. Części: 1. Allegro non tanto, 2. Largo, 3. Allegro
**kern	**kern	**kern	**dynam
*group1	*group1	*group1	*
*part3	*part2	*part1	*part1
*staff3	*staff2	*staff1	*
*Iempty	*Iempty	*Ivioln	*
*I"Baſso.	*I"Violino2do	*I"Violino 1mo	*
*clefF4	*clefG2	*clefG2	*
*k[f#c#g#]	*k[f#c#g#]	*k[f#c#g#]	*
*A:	*A:	*A:	*
*M2/4	*M2/4	*M2/4	*
!LO:TX:t=P:problem:brak głosu basowego	!LO:TX:a:B:t=All[egr]o.	!LO:TX:a:B:t=Allegro n(on) tanto	!
8ryy	8r	8a/	.
=1	=1	=1	=1
2ryy	8r	8ee\L	.
.	8a/L	8ee\J	.
.	8a/	16.ee\LL	.
.	.	32cc#\K	.
.	.	8qcc#/	.
.	8a/J	16.b\	.
.	.	32a\JJk	.
=2	=2	=2	=2
2ryy	8r	8ff#\	.
.	8d/L	4ff#\	.
.	8d/	.	.
.	8d/J	(>32dd\LLL	.
.	.	32cc#\	.
.	.	32b\	.
.	.	32a\JJJ)	.
=3	=3	=3	=3
2ryy	8d/L	8g#/L	.
.	8c#/	8a/J	.
.	8G#/	(>16.dd\LL	.
.	.	32b\K)	.
.	8A/J	(>16.cc#\	.
.	.	32a\JJk)	.
=4	=4	=4	=4
*	*	*^	*
2ryy	8e/L	8b/L	8g#\L	.
.	8A/J	8cc#/J 8ee	8a\J	.
.	8r	4r	4ryy	.
.	8a/	.	.	.
*	*	*v	*v	*
=5	=5	=5	=5
!	!	!	!LO:DY:a:rj
2ryy	8ee\L	8r	p
.	8ee\J	8a/L	.
.	(>16.ee\LL	8a/	.
.	32cc#\K)	.	.
.	(>16.b\	8a/J	.
.	32a\JJk)	.	.
=6	=6	=6	=6
2ryy	8ff#\	8r	.
.	4ff#\	8d/L	.
.	.	8d/	.
.	(>32dd\LLL	8d/J	.
.	32cc#\	.	.
.	32b\	.	.
.	32a\JJJ)	.	.
=7	=7	=7	=7
2ryy	8g#/L	8d/L	.
.	8a/J	8c#/J	.
.	(>16.dd\LL	8G#X/L	.
.	32b\K)	.	.
.	(>16.cc#\	8A/J	.
.	32a\JJk)	.	.
=8	=8	=8	=8
2ryy	8g#/L	4e/	.
.	8e/	.	.
.	8g#/	4ee\	.
.	8e/J	.	.
=9	=9	=9	=9
2ryy	8b\L	16.dd#X\LL	.
.	.	32b\JK	.
.	16r	8b\J	.
.	16b\Jk	.	.
.	16.ee\LL	4gg#t>\	.
.	32b\K	.	.
.	16.ee\	.	.
.	32b\JJk	.	.
!	!	!LO:LB:g=original	!
=10	=10	=10	=10
!	!LO:N:vis=16	!	!
2ryy	(>16.dd#X\LL	16.ff#\LL	.
.	32b\K)	32b\JK	.
.	(>16.dd#\	8b\J	.
.	32b\JJk)	.	.
.	(>16.gg#\LL	4eeT>\	.
.	32b\K)	.	.
.	(>16.gg#\	.	.
.	32b\JJk)	.	.
!	!LO:LB:g=original	!	!
=11	=11	=11	=11
2ryy	(>16ff#\LL	16.dd#X\LL	.
.	16b\)	.	.
.	.	32b\JK	.
.	(>16dd#X\	8b\J	.
.	16b\JJ)	.	.
.	(>16.ee\LL	4gg#\	.
!	!LO:N:vis=16	!	!
.	32b\K)	.	.
.	(>16.ee\	.	.
.	32b\JJk)	.	.
=12	=12	=12	=12
2ryy	(>16.dd#X\LL	16.ff#\LL	.
!	!	!LO:N:vis=16	!
.	32b\K)	32b\JK	.
.	(>16.dd#\	8b\J	.
.	32b\JJk)	.	.
.	(>16.gg#\LL	4bb\	.
.	32b\K)	.	.
.	(>16.gg#\	.	.
.	32b\JJk)	.	.
=13	=13	=13	=13
!!mixed beam:problem
!	!LO:TX:t=P:problem:mixed beam	!	!
2ryy	8ff#\L	16aa\LL	.
.	.	16ff#\JJ	.
.	8dd#X\	16r	.
.	.	16aa\	.
.	8ee\	(>16gg#\LL	.
.	.	16ee\JJ)	.
.	8e/J	16r	.
.	.	16gg#\	.
=14	=14	=14	=14
2ryy	8b/L	16.ff#\LL	.
!	!	!LO:N:vis=16	!
.	.	32b\JK	.
.	8b/	8b\J	.
.	8g#/	8b\L	.
.	8e/J	8b\J	.
=15	=15	=15	=15
2ryy	8a/L	4cc#\	.
.	8a/	.	.
!	!	!LO:TUP:a	!
.	8f#/	24cc#\LL	.
.	.	24dd#X\	.
.	.	24ee\	.
.	8f#/J	24ff#\	.
.	.	24gg#\	.
.	.	24aa\JJ	.
=16	=16	=16	=16
2ryy	8d#X/L	4b\	.
.	8d#/	.	.
!	!	!LO:TUP:a	!
.	8e/	24b\LL	.
.	.	24cc#\	.
.	.	24dd#X\	.
.	8e/J	24ee\	.
.	.	24ff#\	.
.	.	24gg#\JJ	.
=17	=17	=17	=17
!!mixed beam:problem
!	!	!LO:TX:t=P:problem:mixed beam	!
2ryy	8c#/L	8a/L	.
.	8c#/	8aa\J	.
.	8d#X/	16r	.
.	.	16aa\LL	.
.	.	8qaa/	.
.	8d#/J	16.gg#\	.
.	.	32ff#\JJk	.
!	!	!LO:LB:g=original	!
=18	=18	=18	=18
.	.	8qqaa/	.
2ryy	8e/L	16gg#\LL	.
.	.	32ff#\L	.
.	.	32gg#\JJJ	.
.	8g#/	16.bb\LL	.
.	.	32ee\JJk	.
.	8a/	8ff#\L	.
.	8b/J	8dd#Xt>\J	.
=19	=19	=19	=19
2ryy	8e/	8ee\	.
*	*Xtuplet	*	*
!	!LO:TUP:a:problem:klamra łukowa	!	!
.	24ee\LL	8r	.
.	24ff#\	.	.
.	24ee\JJ	.	.
.	16.b\LL	8g#/	.
.	32ee\JJk	.	.
!	!LO:TUP:a:problem:klamra łukowa	!	!
.	24ee\LL	8r	.
.	24ff#\	.	.
.	24ee\JJ	.	.
=20	=20	=20	=20
2ryy	8cc#\L	8a/L	.
.	16.aa\L	8a/J	.
.	32ff#\JJk	.	.
!!mixed beam:problem
!	!	!LO:TX:t=P:problem:mixed beam	!
.	8ee\L	8b\L	.
.	8dd#Xt>\J	8B/J	.
!	!LO:LB:g=original	!	!
=21	=21	=21	=21
!!mixed beam:problem
!	!	!LO:TX:t=P:problem:mixed beam	!
2ryy	8ee\	(>16.e/LL	.
*	*	*Xtuplet	*
.	.	32ee\JJk	.
.	8r	24ee\LL	.
.	.	24ff#\	.
.	.	24ee\JJ)	.
.	8g#/	16.b\LL	.
.	.	(>32ee\JJk	.
.	8r	24ee\LL	.
.	.	24ff#\	.
.	.	24ee\JJ)	.
=22	=22	=22	=22
2ryy	8a/L	8cc#\	.
.	8A/	24cc#\LL	.
.	.	24b\	.
.	.	24a\JJ	.
.	8B/	8g#/L	.
.	8A/J	8f#/J	.
=23	=23	=23	=23
2ryy	4e/ 4b 4ee	4e/ 4b 4ee	.
.	8r	8r	.
==	==;>	==;>	==
.	8ee\	8ee\	.
=24	=24	=24	=24
2ryy	8gg#\	8bb\	.
.	4gg#\	4bb\	.
.	8ff#\	8aa\	.
=25	=25	=25	=25
*	*	*^	*
2ryy	8ee\	8gg#\	8ryy	.
.	4ee\	4gg#\	4ryy	.
.	(>32dd#X\KLL	16ff#/LL	8b\	.
.	16.ff#\JJ)	.	.	.
.	.	16aa/JJ	.	.
!	!	!LO:LB:g=original	!LO:LB:g=original	!
=26	=26	=26	=26	=26
2ryy	(>32ee\KLL	16gg#/LL	8ryy	.
.	16.gg#\JJ)	.	.	.
.	.	16bb/JJ	.	.
.	8r	8aa/	8ryy	.
.	(>32dd#X\KLL	8r	8r	.
.	16.ff#\JJ)	.	.	.
!	!LO:TX:t=P:problem:wartość pominięta	!	!	!
.	8ryy	16ff#/LL	8b\	.
.	.	16aa/JJ	.	.
=27	=27	=27	=27	=27
2ryy	(>32ee\KLL	16gg#/LL	8b\	.
.	16.gg#\JJ)	.	.	.
.	.	16bb/JJ	.	.
.	4ff#\	4aa/	4b\	.
.	8ee\	8gg#/	8b\	.
=28	=28	=28	=28	=28
.	8qqff#/	8qqaa/	.	.
2ryy	8ee\L	8gg#/L	8b\L	.
.	8dd#X\J	8ff#/J	8b\J	.
.	4r	4r	4ryy	.
*	*	*v	*v	*
=29	=29	=29	=29
2ryy	8r	16gg#\LL	.
.	.	16b#X\JJ	.
.	8g#/L	4b#\	.
.	8g#/	.	.
.	8f#/J	8b#\	.
=30	=30	=30	=30
2ryy	8e/	(>16.cc#\LL	.
.	.	32g#\JJk)	.
.	8r	(16.ee\LL	.
.	.	32cc#\JJk)	.
.	8B#X/	(>16.dd#X\LL	.
.	.	32g#\JJk)	.
.	8r	(>16.ff#\LL	.
.	.	32dd#\JJk)	.
!	!LO:LB:g=original	!	!
=31	=31	=31	=31
2ryy	8c#/L	(>16.ee\LL	.
.	.	32gg#\JJk)	.
.	8d#X/	(>32b#X\KLL	.
.	.	16.dd#X\JJ)	.
.	8e/	16cc#/LL	.
.	.	16g#/	.
.	8c#/J	16e/	.
.	.	16c#/JJ	.
=32	=32	=32	=32
2ryy	8r	(>16.ff#\LL	.
!	!	!LO:N:vis=16	!
.	.	32a#X\JJk)	.
.	8f#/L	4a#\	.
.	8f#/	.	.
.	8e/J	8a#\	.
=33	=33	=33	=33
2ryy	8dn/	32b/KLL	.
.	.	16.f#/JJ	.
.	8r	(>32ddn\KLL	.
.	.	16.b\JJ)	.
.	8A#X/	(>32cc#\KLL	.
.	.	16.f#\JJ)	.
.	8r	(>32ee\KLL	.
.	.	16.cc#\JJ)	.
!	!	!LO:LB:g=original	!
=34	=34	=34	=34
2ryy	8B/L	(>32dd\KLL	.
.	.	16.ff#\JJ)	.
.	8c#/	(>32a#X\KLL	.
.	.	16.cc#\JJ)	.
.	8d/	16b/LL	.
.	.	16f#/	.
.	8B/J	16d/	.
.	.	16B/JJ	.
=35	=35	=35	=35
!!mixed beam:problem
!	!	!LO:TX:t=P:problem:mixed beam	!
2ryy	8r	(<16.ee\LL	.
.	.	32g#/JJk)	.
.	8e/L	4g#/	.
.	8e/	.	.
.	8d/J	8g#/	.
=36	=36	=36	=36
2ryy	8c#/	8a/	.
.	8r	24a\LL	.
.	.	24b\	.
.	.	24cc#\JJ	.
.	.	8qcc#/	.
.	8G#/	8b\	.
.	8r	24b\LL	.
.	.	24cc#\	.
.	.	24dd\JJ	.
=37	=37	=37	=37
.	.	8qdd/	.
2ryy	8A/	8cc#\	.
!	!LO:TUP:a:problem:klamra łukowa	!LO:TUP:a:problem:klamra łukowa	!
.	24a\LL	24cc#\LL	.
.	24b\	24dd\	.
.	24cc#\JJ	24ee\JJ	.
.	(>16cc#\LL	(>16ee\LL	.
.	16b\)	16dd\)	.
.	(>16b\	(>16dd\	.
.	16a\JJ)	16cc#\JJ)	.
=38	=38	=38	=38
.	8qqb/	8qqdd/	.
2ryy	8a/L	8e/L 8cc#	.
.	8g#/J	8e/J 8b	.
.	4r	8r	.
.	.	8a/	.
=39	=39	=39	=39
2ryy	8r	8ee\L	.
.	8a/L	8ee\J	.
.	8a/	16.ee\LL	.
.	.	8qqdd/	.
.	.	32cc#\K	.
.	.	8qqcc#/	.
.	8a/J	16.b\	.
.	.	32a\JJk	.
=40	=40	=40	=40
2ryy	8r	8ff#\	.
.	8d/L	4ff#\	.
.	8d/	.	.
.	8d/J	(>32ee\LLL	.
.	.	32dd\	.
.	.	32cc#\	.
.	.	32b\JJJ)	.
=41	=41	=41	=41
2ryy	8r	8.gg#\L	.
.	8e/L	.	.
.	.	32aa\LL	.
.	.	32bb\JJJ	.
.	8e/	8aa\L	.
.	8e/J	8gg#\J	.
!	!	!LO:LB:g=original	!
=42	=42	=42	=42
!!mixed beam:problem
!	!	!LO:TX:t=P:problem:mixed beam	!
2ryy	(<16a/LL	8aa\L	.
.	16A/)	.	.
.	(<16c#/	8a/J	.
.	16A/JJ)	.	.
!!mixed beam:problem
!	!LO:TX:t=P:problem:mixed beam	!	!
.	(<16cc#\LL	4ee\	.
.	16A/)	.	.
.	(<16c#/	.	.
.	16A/JJ)	.	.
!	!LO:LB:g=original	!	!
=43	=43	=43	=43
2ryy	8cc#\L	8ee\L	.
.	16dd\L	16ff#\L	.
.	16cc#\JJ	16ee\JJ	.
.	(>16cc#\LL	(>16ee\LL	.
.	16b\)	16dd\)	.
.	(>16b\	(>16dd\	.
.	16a\JJ)	16cc#\JJ)	.
=44	=44	=44	=44
.	.	8qqcc#/	.
*	*	*2\right	*
2ryy	(<16b/LL	2dd\	.
.	16e/)	.	.
.	(<16g#/	.	.
.	16e/JJ)	.	.
.	(<16b/LL	.	.
.	16e/)	.	.
.	(<16g#/	.	.
.	16e/JJ)	.	.
=45	=45	=45	=45
2ryy	8b\L	8dd\L	.
.	16cc#\L	16ee\L	.
.	16b\JJ	16dd\JJ	.
.	16b\LL	(>16dd\LL	.
.	16a\	16cc#\)	.
.	16a\	(>16cc#\	.
.	16g#\JJ	16b\JJ)	.
=46	=46	=46	=46
.	.	8qqb/	.
2ryy	(<16a/LL	2cc#\	.
.	16A/)	.	.
.	(<16c#/	.	.
.	16A/JJ)	.	.
.	(<16a/LL	.	.
.	16A/)	.	.
.	(<16c#/	.	.
.	16A/JJ)	.	.
=47	=47	=47	=47
2ryy	8a/L	8cc#\L	.
.	8a/	16dd\L	.
.	.	16cc#\JJ	.
.	8d#X/	(>16cc#\LL	.
.	.	16b\)	.
.	8d#/J	(>16b\	.
.	.	16a\JJ)	.
=48	=48	=48	=48
.	.	8qa/	.
2ryy	8e/L	16g#/LL	.
.	.	32f#/L	.
.	.	32e/JJJ	.
.	8e/	8dd\	.
.	.	8qa/	.
.	8e/	16g#/LL	.
.	.	32f#/L	.
.	.	32e/JJJ	.
.	8d/J	8gg#\	.
=49	=49	=49	=49
2ryy	8c#/L	8.aa\L	.
.	8B/	.	.
.	.	32gg#\LL	.
.	.	32ff#\JJJ	.
.	8c#/	8.ee\L	.
.	8d/J	.	.
.	.	32ff#\LL	.
.	.	32a\JJJ	.
=50	=50	=50	=50
2ryy	8e/L	8.e/L	.
.	8e/	.	.
.	.	32a/LL	.
.	.	32b/JJJ	.
.	8e/	4bT>\	.
.	8e/J	.	.
!	!	!LO:LB:g=original	!
=51	=51	=51	=51
2ryy	8A/	8a/	.
.	24a\LL	8r	.
.	24b\	.	.
.	24a\JJ	.	.
.	16.e/LL	8c#/	.
.	32a/JJk	.	.
!	!LO:TUP:b:problem:klamra łukowa	!	!
.	24a/LL	8r	.
.	24b/	.	.
.	24a/JJ	.	.
=52	=52	=52	=52
!!mixed beam:problem
!	!LO:TX:t=P:problem:mixed beam	!	!
2ryy	8f#/L	8d/L	.
.	16.ff#\L	8d/	.
.	32dd\JJk	.	.
.	8cc#\L	8e/	.
.	8b\J	8e/J	.
!	!LO:LB:g=original	!	!
=53	=53	=53	=53
2ryy	8a/	16.A/LL	.
.	.	32a/JJk	.
.	8r	24a/LL	.
.	.	(<24b/	.
.	.	24a/JJ)	.
.	8c#/	16.e/LL	.
.	.	32a/JJk	.
.	8r	24a/LL	.
.	.	24b/	.
.	.	24a/JJ	.
=54	=54	=54	=54
2ryy	8d/L	8f#/	.
.	.	8qgg#/	.
.	8d/	24ff#\LL	.
.	.	24ee\	.
.	.	24dd\JJ	.
.	8e/	8cc#\L	.
.	8e/J	8b\J	.
=55	=55	=55	=55
2ryy	4A/ 4e 4a	4A/ 4e 4a	.
.	4r	4r	.
==	==;>	==;>	==
*-	*-	*-	*-
!!!system-decoration: [(g1)]
!!!AIN: 2 empty 1 violn
!!!ENC: Krzysztof Stępień
!!!END: 2021-02-19
!!!EED: Jędrzej Mróz
!!!ESR: 2021-10-29
!!!RDF**kern: > = above
!!!RDF**kern: < = below
